actions/22/system-log-out.svg

<svg xmlns="http://www.w3.org/2000/svg" viewBox="0 0 22 22">
  <defs id="defs3051">
    <style type="text/css" id="current-color-scheme">
      .ColorScheme-Text {
        color:#4d4d4d;
      }
      </style>
  </defs>
    <path
       style="fill:currentColor;fill-opacity:1;stroke:none" 
       d="M 11 3 C 6.568 3 3 6.568 3 11 C 3 15.432 6.568 19 11 19 C 15.432 19 19 15.432 19 11 C 19 6.568 15.432 3 11 3 z M 11 4 C 14.878 4 18 7.122 18 11 C 18 14.878 14.878 18 11 18 C 7.122 18 4 14.878 4 11 C 4 7.122 7.122 4 11 4 z M 12.292969 7 L 9 10.292969 L 8.2929688 11 L 9 11.707031 L 12.292969 15 L 13 14.292969 L 9.7070312 11 L 13 7.7070312 L 12.292969 7 z "
        class="ColorScheme-Text" />
</svg>

<svg version="1.1" xmlns="http://www.w3.org/2000/svg" viewBox="0 0 22 22">
<defs id="defs3051">
<style type="text/css" id="current-color-scheme">
.ColorScheme-Text {
color:#4d4d4d;
}
</style>
</defs>
<path style="fill:currentColor;fill-opacity:1;stroke:none" d="m 11,3 c -4.40942,0 -8,3.59058 -8,8 0,4.40942 3.59058,8 8,8 4.40942,0 8,-3.59058 8,-8 0,-4.40942 -3.59058,-8 -8,-8 z  m 0,1.5 c 3.59876,0 6.5,2.90124 6.5,6.5 0,3.59876 -2.90124,6.5 -6.5,6.5 -3.59876,0 -6.5,-2.90124 -6.5,-6.5 0,-3.59876 2.90124,-6.5 6.5,-6.5 z  m 1.293,2.5 l -3.293,3.293 -.707,.707 .707,.707 3.293,3.293 .707,-.707 -3.293,-3.293 3.293,-3.293 -.707,-.707 z " class="ColorScheme-Text"/>
</svg>
